src/main/resources/icons/AllIcons/actions/highlighting.svg

<!-- Copyright 2000-2021 JetBrains s.r.o. Use of this source code is governed by the Apache 2.0 license that can be found in the LICENSE file. -->
<svg xmlns="http://www.w3.org/2000/svg" width="16" height="16" viewBox="0 0 16 16">
  <path fill="#6E6E6E" fill-rule="evenodd" d="M1,2 L15,2 L15,14 L1,14 L1,2 Z M6.61425781,9.84472656 L7.1953125,11.5 L8.484375,11.5 L5.79394531,4.390625 L4.68554688,4.390625 L2,11.5 L3.28417969,11.5 L3.86035156,9.84472656 L6.61425781,9.84472656 Z M4.20703125,8.84863281 L5.23730469,5.89941406 L6.26757812,8.84863281 L4.20703125,8.84863281 Z M13.6386719,8.91210937 L13.6386719,8.84375 C13.6386719,7.9843707 13.4547544,7.31543208 13.0869141,6.83691406 C12.7190737,6.35839604 12.2128938,6.11914062 11.5683594,6.11914062 C10.9889294,6.11914062 10.528322,6.32096152 10.1865234,6.72460938 L10.1865234,4 L9,4 L9,11.5 L10.0742188,11.5 L10.1328125,10.9287109 C10.4778663,11.3746767 10.9596323,11.5976562 11.578125,11.5976562 C12.2194042,11.5976562 12.7231427,11.3551457 13.0893555,10.8701172 C13.4555682,10.3850887 13.6386719,9.73242598 13.6386719,8.91210937 Z M12.4556246,8.80875015 L12.4556246,8.96011734 C12.4491141,9.52001597 12.3449485,9.93830606 12.1431246,10.2150002 C11.9413007,10.4916942 11.6548452,10.6300392 11.2837496,10.6300392 C10.7661689,10.6300392 10.4015892,10.4005493 10.1899996,9.94156265 L10.1899996,7.76382828 C10.398334,7.31460728 10.7596585,7.09000015 11.273984,7.09000015 C11.6581005,7.09000015 11.9510663,7.23322789 12.1528902,7.51968765 C12.3547141,7.80614742 12.4556246,8.23583062 12.4556246,8.80875015 Z"/>
</svg>

<svg xmlns="http://www.w3.org/2000/svg" width="16" height="16" viewBox="0 0 16 16"><rect id="frame" width="16" height="16" fill="none"/><path fill="#6E6E6E" fill-rule="evenodd" d="M1 2h14v12H1V2zm5.614 7.845l.581 1.655h1.29L5.793 4.39H4.686L2 11.5h1.284l.576-1.655h2.754zm-2.407-.996l1.03-2.95 1.03 2.95h-2.06zm9.432.063v-.068c0-.86-.184-1.529-.552-2.007-.368-.479-.874-.718-1.519-.718-.58 0-1.04.202-1.381.606V4H9v7.5h1.074l.059-.571c.345.446.827.669 1.445.669.641 0 1.145-.243 1.511-.728.367-.485.55-1.138.55-1.958zm-1.183-.103v.151c-.007.56-.111.978-.313 1.255-.202.277-.488.415-.86.415-.517 0-.881-.23-1.093-.688V7.764c.208-.45.57-.674 1.084-.674.384 0 .677.143.879.43.202.286.303.716.303 1.289z"/></svg>
